X:1
T:Title
L:1/8
M:6/8
K:Ab
V:1 bass nm="Grand Piano"
V:1
 z3 z2[Q:1/4=81] A, | A,A,A, B,A,G, | A,[K:treble] D2- D2 D | DEF ED[K:bass]B, | A,3- A,2 A, | %5
 B,>B,B, B,[K:treble]CD | D C2- C2 F | FED CD[K:bass]B, | A,6 | A,A,A,[K:treble] F>ED | A,6 | %11
 DDD EDE | F6 | A3 _G3 | F3 E3 | DDD EDB, | A,6 |[M:13/16] DD_GF3/2EE |[M:3/4] D6 |] %19

